!!!!SEGMENT: pl-wtm--a-36-357-86_kagan-jakub--limba-z-kopciuszka-bujny-kwiat.krn
!!!cenid: 19xx:18
!!!COM: Kagan, Jakub
!!!COM-rismID: pe50046719
!!!CDT: 1896/02/07-1942
!!!CNT: Polish
!!!OTL: Limba/Z kopciuszka bujny kwiat
!!!PDT:
!!!AGN: Secular
!!!YEC: Copyright 2022 Narodowy Instytut Fryderyka Chopina (https://polishscores.org)
!!!YEM: License CC-BY-4.0 (https://creativecommons.org/licenses/by/4.0)
!!!SMS-siglum: PL-Wtm
!!!SMS-shelfmark: A.36.357/86
!!!SMS-variant:
!!!SMS-altvar:
!!!SMS-shelfwork: W
!!!NIFC-rismSourceID: 1001219929
!!!NIFC-rismChildID: 1001219929
!!!NIFC-islandoraID: pl-wtm:96505
!!!URL-pdf-islandora: https://repozytorium.nifc.pl/islandora/object/pl-wtm%3A96505/datastream/PDF/view
!!!URL-scan: https://polish.musicsources.pl/pl/lokalizacje/galeria/druki-muzyczne/21492/2 @EN{Scan on Polish Music Sources Website} @PL{Skany w portalu Dziedzictwo Muzyki Polskiej w otwartym dostępie}
!!!IIIF:
!!!ONB-nifc:
!!!AIN: 2 piano 1 vox
!!!key: D
**kern	**kern	**kern	**text	**text
*part3	*part2	*part1	*part1	*part1
*staff3	*staff2	*staff1	*staff1	*staff1
*I"PIANO.	*I"PIANO.	*I"CANTO	*	*
*I'[pf]	*I'[pf]	*I'[V]	*	*
*ICklav	*ICklav	*ICvox	*	*
*Ipiano	*Ipiano	*Ivox	*	*
*>[A,A1,A,A2]	*>[A,A1,A,A2]	*>[A,A1,A,A2]	*>[A,A1,A,A2]	*>[A,A1,A,A2]
*>A	*>A	*>A	*>A	*>A
*clefF4	*clefG2	*clefG2	*	*
*k[f#c#]	*k[f#c#]	*k[f#c#]	*	*
*D:	*D:	*D:	*	*
*M2/4	*M2/4	*M2/4	*	*
=1	=1	=1	=1	=1
8.GG\L 8.G	8b/L 8dd	2ryy	.	.
.	16b/L 16dd	.	.	.
16B\Jk	16g/JJ 16b	.	.	.
8G\L 8d	16e/LL 16g	.	.	.
.	16B/ 16e	.	.	.
8GG\J 8G	16e/ 16g	.	.	.
.	16g/JJ 16b	.	.	.
=2	=2	=2	=2	=2
8.AA\L 8.A	8f#/L 8dd	2ryy	.	.
.	[8f#/J [8a	.	.	.
16A\Jk	.	.	.	.
8F#\L 8d	16f#/LL] 16a]	.	.	.
.	16f#/ 16a	.	.	.
16FF#\L 16F#	16f#/ 16a	.	.	.
16FFn\JJ 16Fn	16g/JJ 16b	.	.	.
=3	=3	=3	=3	=3
8.EE/L 8.E	16f#/LL 16a	2ryy	.	.
.	16e/J 16g	.	.	.
.	[8g/J [8b	.	.	.
16A/Jk	.	.	.	.
8G/L 8c#	16g/LL] 16b]	.	.	.
.	16e/ 16g	.	.	.
8AAA/J 8AA	16e/ 16g	.	.	.
.	16f#/JJ 16a	.	.	.
=4	=4	=4	=4	=4
8.DD/L 8.D	16e/LL 16g	2ryy	.	.
.	16d/J 16f#	.	.	.
.	[8f#/J [8a	.	.	.
16A/Jk	.	.	.	.
16F#/LL 16d	4f#/] 4a]	.	.	.
16DD/ 16D	.	.	.	.
16EE/ 16E	.	.	.	.
16FF#/JJ 16F#	.	.	.	.
=5	=5	=5	=5	=5
!	!	!LO:TX:a:t=CANTO	!	!
8.GG\L 8.G	8b\L 8dd	2r	.	.
.	16b\L 16dd	.	.	.
16B\Jk	16g\JJ 16b	.	.	.
8G/L 8d	16e/LL 16g	.	.	.
.	16f#/ 16a	.	.	.
8GG/J 8G	16g/ 16b	.	.	.
.	16b/JJ 16dd	.	.	.
=6	=6	=6	=6	=6
8.AA\L 8.A	8a\L 8ff#	2r	.	.
.	[8f#\J [8a	.	.	.
16A\Jk	.	.	.	.
8F#\L 8d	16f#/LL] 16a]	.	.	.
.	16f#/ 16a	.	.	.
16FF#\L 16F#	16f#/ 16a	.	.	.
16FFn\JJ 16Fn	16g/JJ 16b	.	.	.
=7	=7	=7	=7	=7
8.EE\L 8.E	8f#/L 8a	2r	.	.
.	16e/L 16g	.	.	.
16A\Jk	16f#/JJ 16a	.	.	.
8A/L 8c#	8e/L 8g	.	.	.
8AAA/J 8AA	16d/L 16f#	.	.	.
.	16c#/JJ 16e	.	.	.
=8	=8	=8	=8	=8
!	!	!LO:N:vis=8	!	!
8DD/L 8D	8d/L	4r	.	.
8AA^/	8c#^/ 8e#X 8a	.	.	.
16DD/Jk 16D	16d/Jk 16f# 16a 16dd	16r	.	.
16r	16a/LL	16a/	1. Z kop-	2. Prze-
8r	16a/	16a/	-ciusz-	-szło-
.	16b-X/JJ	16b-X\	-ka	-ści
*kcancel	*kcancel	*kcancel	*	*
!!LO:LB:g=original	!	!	!	!
=9||	=9||	=9||	=9||	=9||
*k[b-]	*k[b-]	*k[b-]	*	*
8.EE\L 8.E	16f/LL 16a	16a/	buj-	zgi-
.	16e/J 16g	16g/	-ny	-nął
.	[8g/J [8b-	[8b-\	kwiat,	cień,
16B-\Jk	.	.	.	.
8G/L 8d	16g/LL] 16b-]	16b-\]	.	.
.	16e/ 16g	16g/	Co	Więc
8CC#X/J 8C#X	16e/ 16g	16g/	o-	przyj-
.	16f/JJ 16a	16a/	-cza-	-dzie
=10	=10	=10	=10	=10
8.DD/L 8.D	16e/LL 16g	16g/	-ro-	wkrót-
.	16d/J 16f	16f/	-wał	-ce
.	[8f/J [8a	[8a/	świat	dzień,
16A/Jk	.	.	.	.
8d/L	16f/LL] 16a]	16a/]	.	.
.	16d/ 16f	16f/	A-	Gdy
8BBBn/J 8BBn	16d/ 16f	16f/	-nioł	ser-
.	16e/JJ 16g	16g/	za	-ce
=11	=11	=11	=11	=11
8.CC#X/L 8.C#X	16d/LL 16f	16f/	któ-	peł-
.	16c#X/J 16e	16e/	-rym	-ne
.	[8f/J [8a	[8a/	w ślad	drżeń
16A/Jk	.	.	.	.
8A/L 8c#X	16f/LL] 16a]	16a/]	.	.
.	16c#/ 16e	16e/	Ma-	Za-
8AAA/J 8AA	16c#/ 16e	16e/	-rze-	-pło-
.	16d/JJ 16f	16f/	-nia	-nie
=12	=12	=12	=12	=12
8.DD/L 8.D	8e/L	8e/	bie-	szczę-
.	[8d/J	[8d/	-gą	-ściem
16F/Jk	.	.	.	.
8D/L 8A	16d/LL]	16d/]	.	.
.	16cc/	16cc\	Pro-	Kró-
16AAA/L 16AA	16cc/	16cc\	-mien-	-le-
16BBB-/JJ 16BB-	16dd/JJ	16dd\	-ny,	-wicz
!!LO:LB:g=original	!	!	!	!
=13	=13	=13	=13	=13
8.CC/L 8.C	16a\LL 16cc	16cc\	ja-	z baj-
.	16g\J 16b-	16b-\	-sny	-ki
.	[8b-\J [8dd	[8dd\	wzrok,	sam
16c/Jk	.	.	.	.
8B-/L 8e	16b-\LL] 16dd]	16dd\]	.	.
.	16g\ 16b-	16b-\	Pu-	U-
8CC/J 8C	16g\ 16b-	16b-\	-szy-	-chy-
.	16a\JJ 16cc	16cc\	-stych	-li
=14	=14	=14	=14	=14
8.FF\L 8.F	16g/LL 16b-	16b-\	wło-	ra-
.	16f/J 16a	16a/	-sów	-ju
.	[8a/J [8cc	[8cc\	lok,	bram
16c\Jk	.	.	.	.
8A\L 8f	16a/LL] 16cc]	16cc\]	.	.
.	16f/ 16a	16a/	Po-	I
8FF\J 8F	16f/ 16a	16a/	-dzi-	tak
.	16g/JJ 16b-	16b-\	-wiał	się
=15	=15	=15	=15	=15
8.EE\L 8.E	16a/LL	16a/	ją	skoń-
.	16d/J 16g#X	16g#X/	jak	-czy
.	[8g#/J [8dd	[8dd\	cud	ten
16G#X\Jk	.	.	.	.
8E\L 8Bn	16g#/LL] 16dd]	16dd\]	.	.
.	16g#/ 16dd	16dd\	War-	Błę-
8EE\J 8E	16g#/ 16dd	16dd\	-sza-	-kit-
.	16g#/JJ 16ee	16ee\	-wy	-ny
=16	=16	=16	=16	=16
8.AAA/L 8.AA	[4e/ [4cc#X	[4cc#X\	lud.	sen.
16A/Jk	.	.	.	.
8A/L 8c#X	16e\LL] 16cc#]	16cc#\]	.	.
.	16e\ 16cc#	16cc#\	Nie	Gdy
8AAA/J 8AA	16f\ 16dd	16dd\	por-	wiel-
.	16g\JJ 16ee	16ee\	-wał	-ka
!!LO:PB:g=original	!	!	!	!
=17	=17	=17	=17	=17
8.DD/L 8.D	8.a\L 8.ff	8.ff\	jej	mi-
16A/Jk	16g\Jk 16ee	16ee\	Pa-	-łość
8F/L 8d	16f/LL 16dd	16dd\	-ry-	weź-
.	16a/ 16cc	16cc\	-ża	-mie
8DD/J 8D	16g/ 16b-	16b-\	szum	cię
.	16f/JJ 16a	16a/	i	w swą
=18	=18	=18	=18	=18
8.EE/L 8.E	[4e/ [4g	[4g/	gwar,	moc,
16B-/Jk	.	.	.	.
8G/L 8d	16e/LL] 16g]	16g/]	.	.
.	16f/ 16a	16a/	Przy-	Niech
8EE/J 8E	16g/ 16b-	16b-\	-wio-	piosn-
.	16e/JJ 16g	16g/	-zła	-ka
=19	=19	=19	=19	=19
8.FF/L 8.F	8.d/L 8.a	8.a/	do	ta
16A/Jk	16f/Jk 16dd	16dd\	nas	ko-
8F/L 8d	16e/LL 16cc#X	16cc#X\	swój	-ły-
.	16f/ 16dd	16dd\	dziew-	-sze
16GGG/L 16GG	16g/ 16ee	16ee\	-czę-	Cię
16GGG#X/JJ 16GG#X	16f/JJ 16dd	16dd\	-cy	co
=20	=20	=20	=20	=20
8AAA/L 8AA	[4e/ [4cc#X	[4cc#X\	czar...	noc,
8EE/	.	.	.	.
8AAA/J 8AA	16e,;Z\LL] 16cc#]	16cc#,;Z\]	.	.
.	16f#X\ 16dd	16dd\	1.2. Nie	.
8r	16g\ 16ee	16ee\	za-	.
.	16a\JJ 16ff#X	16ff#X\	-po-	.
*kcancel	*kcancel	*kcancel	*	*
!!LO:LB:g=original	!	!	!	!
=21!|:	=21!|:	=21!|:	=21!|:	=21!|:
*k[f#c#]	*k[f#c#]	*k[f#c#]	*	*
8.DD/L 8.D	8.f#/L 8.a	8.a/	-mni-	.
16A/Jk	16f#/Jk 16a	16a/	-my	.
8F#/L 8d	16e#X/LL 16g#X	16g#X/	cie-	.
.	16f#/ 16a	16a/	-bie,	.
8AAA/J 8AA	16g#/ 16b	16b\	miss	.
.	16f#/JJ 16a	16a/	Po-	.
=22	=22	=22	=22	=22
8.CC#/L 8.C#	8f#/L 8a	8a/	-lo-	.
.	[8e/J [8g	[8g/	-njo,	.
16A/Jk	.	.	.	.
8G/L 8c#	16e/LL] 16g]	16g/]	.	.
.	16e/ 16cc#	16cc#\	Gdy	.
8AAA/J 8AA	16f#/ 16dd	16dd\	po-	.
.	16g/JJ 16ee	16ee\	-ma-	.
=23	=23	=23	=23	=23
8.CC#/L 8.C#	8.e/L 8.g	8.g/	-ga-	.
16A/Jk	16e/Jk 16g	16g/	-łaś	.
8G/L 8c#	16d#X/LL 16f#	16f#/	in-	.
.	16e/ 16g	16g/	-nym	.
8AAA/J 8AA	16f#/ 16a	16a/	hoj-	.
.	16e/JJ 16g	16g/	-ną	.
=24	=24	=24	=24	=24
8.DD/L 8.D	8e/L 8g	8g/	dło-	.
.	[8d/J [8f#	[8f#/	-nią,	.
16A/Jk	.	.	.	.
8F#/L 8d	8d/L] 8f#]	8f#/]	.	.
8AAA/J 8AA	8d/J	8d/	Gdy	.
!!LO:LB:g=original	!	!	!	!
=25	=25	=25	=25	=25
8.GGG/L 8.GG	8.d/L 8.b	8.b\	los	.
16G/Jk	16c#X/Jk 16a#X	16a#X/	u-	.
8D/L 8B	16d/LL 16b	16b\	-śmie-	.
.	16b/ 16dd	16dd\	-chnął	.
8GGG/J 8GG	16a#/ 16cc#	16cc#\	ci	.
.	16g/JJ 16b	16b\	się	.
=26	=26	=26	=26	=26
8.AAA/L 8.AA	16g/LL 16b	16b\	pe-	.
.	16f#/J 16a	16a/	-łen	.
.	[8f#/J [8dd	[8dd\	łask,	.
16A/Jk	.	.	.	.
8F#/L 8d	16f#\LL] 16dd]	16dd\]	.	.
.	16f#\ 16dd	16dd\	Szłaś	.
16FF#/L 16F#	16g\ 16ee	16ee\	mię-	.
16FFn/JJ 16Fn	16g#X\JJ 16ee#X	16ee#X\	-dzy	.
=27	=27	=27	=27	=27
8.EE/L 8.E	8.g#X\L 8.ff#	8.ff#\	bie-	.
16B/Jk	16g#\Jk 16ee	16ee\	-dnych	.
8G#X/L 8d	16g#\LL 16dd#X	16dd#X\	ni-	.
.	16g#\ 16ee	16ee\	-by	.
8EE/J 8E	16g#\ 16ff#	16ff#\	szczę-	.
.	16g#\JJ 16ee	16ee\	-ścia	.
=28	=28	=28	=28	=28
8AAA/L 8AA	[4gn\ [4ee	[4ee\	brzask,	.
8EE/	.	.	.	.
8AAA/J 8AA	16g\LL] 16ee]	16ee\]	.	.
.	16f#\ 16dd	16dd\	Nie	.
8r	16g\ 16ee	16ee\	za-	.
.	16a\JJ 16ff#	16ff#\	-po-	.
!!LO:LB:g=original	!	!	!	!
=29	=29	=29	=29	=29
8.DD/L 8.D	8.f#/L 8.a	8.a/	-mni-	.
16A/Jk	16f#/JJ 16a	16a/	-my	.
8F#/L 8d	16e#X/LL 16g#X	16g#X/	cie-	.
.	16f#/ 16a	16a/	-bie	.
8AAA/J 8AA	16gn/ 16b	16b\	miss	.
.	16f#/JJ 16a	16a/	Po-	.
=30	=30	=30	=30	=30
8.CC#/L 8.C#	8f#/L 8a	8a/	-lo-	.
.	[8e/J [8g	[8g/	-njo,	.
16A/Jk	.	.	.	.
8G/L 8c#	16e/LL] 16g]	16g/]	.	.
.	16e/ 16cc#	16cc#\	I	.
8AAA/J 8AA	16f#/ 16dd	16dd\	na-	.
.	16g/JJ 16ee	16ee\	-sze	.
=31	=31	=31	=31	=31
8.CC#/L 8.C#	8.e/L 8.g	8.g/	ser-	.
16A/Jk	16e/Jk 16g	16g/	-ca	.
8G/L 8c#	16d#X/LL 16f#	16f#/	za-	.
.	16e/ 16g	16g/	-wsze	.
8AAA/J 8AA	16f#/ 16a	16a/	Cię	.
.	16e/JJ 16g	16g/	o-	.
=32	=32	=32	=32	=32
8.DD/L 8.D	8e/L 8g	8g/	-bro-	.
.	[8d/J [8f#	[8f#/	-nią,	.
16A/Jk	.	.	.	.
8F#/L 8d	8d/L] 8f#]	8f#/]	.	.
8AAA/J 8AA	8d/J	8d/	Choć	.
!!LO:LB:g=original	!	!	!	!
=33	=33	=33	=33	=33
8.GGG/L 8.GG	16g/LL 16b	16b\	mi-	.
.	16f#X/ 16a#X	16a#X/	-nie,	.
.	16g/ 16b	16b\	co	.
16G/Jk	16a#/JJ 16cc#	16cc#\	kop-	.
8D/L 8B	16cc#\LL 16ee	16ee\	-ciu-	.
.	16b\ 16dd	16dd\	-szka	.
16GGG/L 16GG	16a#\ 16cc#	16cc#\	tyl-	.
16GGG#X/JJ 16GG#X	16g\JJ 16b	16b\	-ko	.
=34	=34	=34	=34	=34
8.AAA/L 8.AA	16g/LL 16b	16b\	by-	.
.	16f#/J 16a	16a/	-ło	.
.	[8f#/J [8dd	[8dd\	snem,	.
16A/Jk	.	.	.	.
8F#/L 8d	16f#\LL] 16dd]	16dd\]	.	.
.	16f#\ 16dd	16dd\	Zo-	.
16FF#/L 16F#	16g\ 16ee	16ee\	-sta-	.
16FFn/JJ 16Fn	16g#X\JJ 16ee#X	16ee#X\	-nie	.
=35	=35	=35	=35	=35
8.EE\L 8.E	8g#X\L 8ff#	8ff#\	to,	.
.	8g#\J 8ee	8ee\	co	.
16B\Jk	.	.	.	.
8G#X\L 8d	16g#\LL 16ff#	16ff#\	by-	.
.	16g#\ 16ee	16ee\	-ło	.
8AA:\J 8Gn: 8c#:	16gn\ 16ff#	16ff#\	ser-	.
.	16g\JJ 16ee	16ee\	-cem	.
=36	=36	=36	=36	=36
*>A1	*>A1	*>A1	*>A1	*>A1
8DD/L 8D	8f#/L 8a 8dd	8dd\	twem.	.
8AA^/	8c#^/J 8e#X 8a	8r	.	.
8DD/J 8D	16f#\LL 16a 16dd	16r	.	.
.	16f#\ 16dd	16dd\	Nie-	.
8r	16g\ 16ee	16ee\	-za-	.
.	16a\JJ 16ff#	16ff#X\	-po	.
=37:|!	=37:|!	=37:|!	=37:|!	=37:|!
*>A2	*>A2	*>A2	*>A2	*>A2
8D/L	8f#/L 8a 8dd	8dd\	twem.	.
8AA/J	8c#/J 8e#X 8a	8r	.	.
8DD/	8f#/ 8a 8dd	4r	.	.
8r	8r	.	.	.
==	==	==	==	==
*-	*-	*-	*-	*-
!!!system-decoration: s1{(s2,s3)}
!!!RDF**kern: > = above
!!!RDF**kern: < = below
!!!ENC: Berenika Jozajtis
!!!END: 2023-08-27
!!!ENC: Jan Barakat
!!!END: 2023-09-23
